X: 510
T: Jiefu huan xiaoyi
L: 1/8
M: 2/4
K: F
f e d c [I:setbarnb 1]| 
f e d c | 
A c A G | 
F4 | 
c c d c | 
d> c A G | 
F D C D | 
C4 |]

@@@ Tune index: 9384
